gama.ui.shared/icons_svg/dark/gaml/_font.svg

<svg height="18" viewBox="-453.587 -2834.086 24 18" width="24" xmlns="http://www.w3.org/2000/svg"><path d="m-440.5871-2824.6247v4.6154h.5c.28 0 .5.2031.5.4615 0 .2585-.22.4616-.5.4616h-2c-.28 0-.5-.2031-.5-.4616 0-.2584.22-.4615.5-.4615h.5v-4.6154h-2v.4617c0 .2583-.22.4614-.5.4614s-.5-.2031-.5-.4614v-.9232c0-.2585.22-.4616.5-.4616h6c.28 0 .5.2031.5.4616v.9232c0 .2583-.22.4614-.5.4614s-.5-.2031-.5-.4614v-.4617zm-7-5.5383v10.1537h1.5c.28 0 .5.2031.5.4615 0 .2585-.22.4616-.5.4616h-4c-.28 0-.5-.2031-.5-.4616 0-.2584.22-.4615.5-.4615h1.5v-10.1537h-4v1.3845c0 .2585-.22.4615-.5.4615s-.5-.203-.5-.4615v-1.8462c0-.2583.22-.4615.5-.4615h10c.28 0 .5.2032.5.4615v1.8462c0 .2585-.22.4615-.5.4615s-.5-.203-.5-.4615v-1.3845z" fill="#999"/></svg>

<?xml version="1.0" encoding="UTF-8" standalone="no"?>
<!DOCTYPE svg PUBLIC "-//W3C//DTD SVG 1.1//EN" "http://www.w3.org/Graphics/SVG/1.1/DTD/svg11.dtd">
<svg xmlns:dc="http://purl.org/dc/elements/1.1/" xmlns:xl="http://www.w3.org/1999/xlink" version="1.1" xmlns="http://www.w3.org/2000/svg" viewBox="-453.5871 -2834.0862 24 18" width="24" height="18">
  <defs/>
  <g id="SOURCES" stroke-dasharray="none" stroke="none" stroke-opacity="1" fill="none" fill-opacity="1">
    <title>SOURCES</title>
    <g id="SOURCES_New">
      <title>New</title>
      <g id="Group_10481">
        <g id="Graphic_10147"/>
        <g id="Group_10070">
          <title>font-size</title>
          <g id="Graphic_10071">
            <path d="M -440.5871 -2824.6247 L -440.5871 -2820.0093 L -440.0871 -2820.0093 C -439.8071 -2820.0093 -439.5871 -2819.8062 -439.5871 -2819.5478 C -439.5871 -2819.2893 -439.8071 -2819.0862 -440.0871 -2819.0862 L -442.0871 -2819.0862 C -442.3671 -2819.0862 -442.5871 -2819.2893 -442.5871 -2819.5478 C -442.5871 -2819.8062 -442.3671 -2820.0093 -442.0871 -2820.0093 L -441.5871 -2820.0093 L -441.5871 -2824.6247 L -443.5871 -2824.6247 L -443.5871 -2824.163 C -443.5871 -2823.9047 -443.8071 -2823.7016 -444.0871 -2823.7016 C -444.3671 -2823.7016 -444.5871 -2823.9047 -444.5871 -2824.163 L -444.5871 -2825.0862 C -444.5871 -2825.3447 -444.3671 -2825.5478 -444.0871 -2825.5478 L -438.0871 -2825.5478 C -437.8071 -2825.5478 -437.5871 -2825.3447 -437.5871 -2825.0862 L -437.5871 -2824.163 C -437.5871 -2823.9047 -437.8071 -2823.7016 -438.0871 -2823.7016 C -438.3671 -2823.7016 -438.5871 -2823.9047 -438.5871 -2824.163 L -438.5871 -2824.6247 Z M -447.5871 -2830.163 L -447.5871 -2820.0093 L -446.0871 -2820.0093 C -445.8071 -2820.0093 -445.5871 -2819.8062 -445.5871 -2819.5478 C -445.5871 -2819.2893 -445.8071 -2819.0862 -446.0871 -2819.0862 L -450.0871 -2819.0862 C -450.3671 -2819.0862 -450.5871 -2819.2893 -450.5871 -2819.5478 C -450.5871 -2819.8062 -450.3671 -2820.0093 -450.0871 -2820.0093 L -448.5871 -2820.0093 L -448.5871 -2830.163 L -452.5871 -2830.163 L -452.5871 -2828.7785 C -452.5871 -2828.52 -452.8071 -2828.317 -453.0871 -2828.317 C -453.3671 -2828.317 -453.5871 -2828.52 -453.5871 -2828.7785 L -453.5871 -2830.6247 C -453.5871 -2830.883 -453.3671 -2831.0862 -453.0871 -2831.0862 L -443.0871 -2831.0862 C -442.8071 -2831.0862 -442.5871 -2830.883 -442.5871 -2830.6247 L -442.5871 -2828.7785 C -442.5871 -2828.52 -442.8071 -2828.317 -443.0871 -2828.317 C -443.3671 -2828.317 -443.5871 -2828.52 -443.5871 -2828.7785 L -443.5871 -2830.163 Z" fill="#999"/>
          </g>
        </g>
      </g>
    </g>
  </g>
</svg>
